Newaita-dark/apps/256/stock_xfburn-burn-cd.svg

<?xml version="1.0" encoding="UTF-8"?>
<svg xmlns="http://www.w3.org/2000/svg" xmlns:xlink="http://www.w3.org/1999/xlink" width="256pt" height="256pt" viewBox="0 0 256 256" version="1.1">
<defs>
<radialGradient id="radial0" gradientUnits="userSpaceOnUse" cx="450.908936" cy="189.579361" fx="450.908936" fy="189.579361" r="21.166656" gradientTransform="matrix(0.00000139336,-0.62506,-1.125108,-0.000000812309,356.185215,508.762635)">
<stop offset="0" style="stop-color:rgb(0%,0%,0%);stop-opacity:0.313725;"/>
<stop offset="0.222222" style="stop-color:rgb(0%,0%,0%);stop-opacity:0.27451;"/>
<stop offset="1" style="stop-color:rgb(0%,0%,0%);stop-opacity:0;"/>
</radialGradient>
<radialGradient id="radial1" gradientUnits="userSpaceOnUse" cx="450.908936" cy="189.579361" fx="450.908936" fy="189.579361" r="21.166656" gradientTransform="matrix(-0.00000139336,0.62506,1.125108,0.000000812309,-102.160949,-60.219856)">
<stop offset="0" style="stop-color:rgb(0%,0%,0%);stop-opacity:0.313725;"/>
<stop offset="0.222222" style="stop-color:rgb(0%,0%,0%);stop-opacity:0.27451;"/>
<stop offset="1" style="stop-color:rgb(0%,0%,0%);stop-opacity:0;"/>
</radialGradient>
<radialGradient id="radial2" gradientUnits="userSpaceOnUse" cx="450.908936" cy="189.579361" fx="450.908936" fy="189.579361" r="21.166656" gradientTransform="matrix(-0.00000139336,-0.62506,1.125108,-0.000000812309,-102.160949,508.762635)">
<stop offset="0" style="stop-color:rgb(0%,0%,0%);stop-opacity:0.313725;"/>
<stop offset="0.222222" style="stop-color:rgb(0%,0%,0%);stop-opacity:0.27451;"/>
<stop offset="1" style="stop-color:rgb(0%,0%,0%);stop-opacity:0;"/>
</radialGradient>
<radialGradient id="radial3" gradientUnits="userSpaceOnUse" cx="450.908936" cy="189.579361" fx="450.908936" fy="189.579361" r="21.166656" gradientTransform="matrix(0.00000139336,0.62506,-1.125108,0.000000812309,356.1852,-60.21986)">
<stop offset="0" style="stop-color:rgb(0%,0%,0%);stop-opacity:0.313725;"/>
<stop offset="0.222222" style="stop-color:rgb(0%,0%,0%);stop-opacity:0.27451;"/>
<stop offset="1" style="stop-color:rgb(0%,0%,0%);stop-opacity:0;"/>
</radialGradient>
<linearGradient id="linear0" gradientUnits="userSpaceOnUse" x1="255.323059" y1="233.5" x2="255.323044" y2="254.666656" gradientTransform="matrix(0.10688,0,0,0.500048,99.723089,107.510269)">
<stop offset="0" style="stop-color:rgb(0%,0%,0%);stop-opacity:0.27451;"/>
<stop offset="1" style="stop-color:rgb(0%,0%,0%);stop-opacity:0;"/>
</linearGradient>
<linearGradient id="linear1" gradientUnits="userSpaceOnUse" x1="254" y1="-168.666672" x2="254" y2="233.5" gradientTransform="matrix(3.779528,0,0,3.779528,0,812.59845)">
<stop offset="0" style="stop-color:rgb(87.843137%,87.843137%,87.843137%);stop-opacity:1;"/>
<stop offset="1" style="stop-color:rgb(74.117647%,74.117647%,74.117647%);stop-opacity:1;"/>
</linearGradient>
<linearGradient id="linear2" gradientUnits="userSpaceOnUse" x1="960" y1="1695.118164" x2="960" y2="1315.118164" >
<stop offset="0" style="stop-color:rgb(95.686275%,26.27451%,21.176471%);stop-opacity:1;"/>
<stop offset="1" style="stop-color:rgb(93.72549%,32.54902%,31.372549%);stop-opacity:1;"/>
</linearGradient>
<linearGradient id="linear3" gradientUnits="userSpaceOnUse" x1="254" y1="117.083344" x2="254" y2="-52.25" gradientTransform="matrix(3.779528,0,0,3.779528,0,812.59845)">
<stop offset="0" style="stop-color:rgb(96.078431%,96.078431%,96.078431%);stop-opacity:1;"/>
<stop offset="1" style="stop-color:rgb(87.843137%,87.843137%,87.843137%);stop-opacity:1;"/>
</linearGradient>
</defs>
<g id="surface1">
<path style=" stroke:none;fill-rule:nonzero;fill:url(#radial0);" d="M 145.535156 224.269531 L 166.703125 224.269531 L 166.703125 213.6875 L 145.535156 213.6875 Z M 145.535156 224.269531 "/>
<path style=" stroke:none;fill-rule:nonzero;fill:url(#radial1);" d="M 108.488281 224.269531 L 87.320312 224.269531 L 87.320312 234.855469 L 108.488281 234.855469 Z M 108.488281 224.269531 "/>
<path style=" stroke:none;fill-rule:nonzero;fill:url(#radial2);" d="M 108.488281 224.269531 L 87.320312 224.269531 L 87.320312 213.6875 L 108.488281 213.6875 Z M 108.488281 224.269531 "/>
<path style=" stroke:none;fill-rule:nonzero;fill:url(#radial3);" d="M 145.535156 224.269531 L 166.703125 224.269531 L 166.703125 234.855469 L 145.535156 234.855469 Z M 145.535156 224.269531 "/>
<path style=" stroke:none;fill-rule:nonzero;fill:url(#linear0);" d="M 108.488281 221.625 L 145.535156 221.625 L 145.535156 234.855469 L 108.488281 234.855469 Z M 108.488281 221.625 "/>
<path style="fill-rule:nonzero;fill:url(#linear1);stroke-width:11.338583;stroke-linecap:round;stroke-linejoin:miter;stroke:rgb(20%,20%,20%);stroke-opacity:1;stroke-miterlimit:4;" d="M 959.996958 175.11124 C 538.974149 175.11124 200.000596 514.084793 200.000596 935.107601 C 200.000596 1356.159935 538.974149 1695.103963 959.996958 1695.103963 C 1381.049291 1695.103963 1719.99332 1356.159935 1719.99332 935.107601 C 1719.99332 514.084793 1381.049291 175.11124 959.996958 175.11124 Z M 959.996958 775.113029 C 1048.630231 775.113029 1119.99153 846.474328 1119.99153 935.107601 C 1119.99153 1023.770399 1048.630231 1095.131698 959.996958 1095.131698 C 871.363685 1095.131698 800.002386 1023.770399 800.002386 935.107601 C 800.002386 846.474328 871.363685 775.113029 959.996958 775.113029 Z M 959.996958 775.113029 " transform="matrix(0.132304,0,0,0.132304,0,0)"/>
<path style="fill-rule:nonzero;fill:url(#linear2);stroke-width:11.338583;stroke-linecap:square;stroke-linejoin:bevel;stroke:rgb(12.941177%,12.941177%,12.941177%);stroke-opacity:1;stroke-miterlimit:4;" d="M 959.996958 1305.111657 C 947.507993 1305.111657 934.989502 1315.120544 919.990934 1335.108794 C 870.005547 1405.111955 838.148351 1445.354178 840.00841 1495.103366 C 840.00841 1495.103366 840.00841 1495.132891 840.00841 1495.132891 L 840.00841 1655.127463 C 840.00841 1677.271019 857.841354 1695.133488 880.014434 1695.133488 L 1040.009006 1695.133488 C 1062.152562 1695.133488 1079.985506 1677.271019 1079.985506 1655.127463 L 1079.985506 1495.103366 C 1079.985506 1445.11798 1049.988369 1405.111955 1000.002982 1335.108794 C 985.004414 1315.120544 972.485924 1305.111657 959.996958 1305.111657 Z M 959.996958 1305.111657 " transform="matrix(0.132304,0,0,0.132304,0,0)"/>
<path style=" stroke:none;fill-rule:nonzero;fill:rgb(0%,0%,0%);fill-opacity:0.196078;" d="M 127.011719 224.269531 C 71.308594 224.269531 26.460938 179.425781 26.460938 123.71875 C 26.460938 123.390625 26.464844 123.0625 26.46875 122.734375 C 26.992188 177.984375 71.636719 222.300781 127.011719 222.300781 C 182.390625 222.300781 227.03125 177.984375 227.558594 122.734375 C 227.558594 123.0625 227.5625 123.390625 227.5625 123.71875 C 227.5625 179.425781 182.71875 224.269531 127.011719 224.269531 Z M 127.011719 224.269531 "/>
<path style=" stroke:none;fill-rule:nonzero;fill:rgb(100%,100%,100%);fill-opacity:0.588235;" d="M 127.011719 23.167969 C 71.308594 23.167969 26.460938 68.015625 26.460938 123.71875 C 26.460938 124.046875 26.464844 124.375 26.46875 124.703125 C 26.992188 69.457031 71.636719 25.136719 127.011719 25.136719 C 182.390625 25.136719 227.03125 69.457031 227.558594 124.703125 C 227.558594 124.375 227.5625 124.046875 227.5625 123.71875 C 227.5625 68.015625 182.71875 23.167969 127.011719 23.167969 Z M 127.011719 23.167969 "/>
<path style=" stroke:none;fill-rule:nonzero;fill:rgb(12.941177%,12.941177%,12.941177%);fill-opacity:1;" d="M 127.011719 22.417969 C 70.902344 22.417969 25.710938 67.613281 25.710938 123.71875 C 25.710938 179.828125 70.902344 225.023438 127.011719 225.023438 C 183.121094 225.023438 228.3125 179.828125 228.3125 123.71875 C 228.3125 67.613281 183.121094 22.417969 127.011719 22.417969 Z M 127.011719 23.917969 C 182.316406 23.917969 226.8125 68.417969 226.8125 123.71875 C 226.8125 179.023438 182.316406 223.519531 127.011719 223.519531 C 71.710938 223.519531 27.210938 179.023438 27.210938 123.71875 C 27.210938 68.417969 71.710938 23.917969 127.011719 23.917969 Z M 127.011719 23.917969 "/>
<path style="fill-rule:nonzero;fill:url(#linear3);stroke-width:11.338583;stroke-linecap:round;stroke-linejoin:miter;stroke:rgb(20%,20%,20%);stroke-opacity:1;stroke-miterlimit:4;" d="M 959.996958 615.118457 C 782.730412 615.118457 640.007814 757.841055 640.007814 935.107601 C 640.007814 1112.403672 782.730412 1255.12627 959.996958 1255.12627 C 1137.293029 1255.12627 1279.986102 1112.403672 1279.986102 935.107601 C 1279.986102 757.841055 1137.293029 615.118457 959.996958 615.118457 Z M 959.996958 775.113029 C 1048.630231 775.113029 1119.99153 846.474328 1119.99153 935.107601 C 1119.99153 1023.770399 1048.630231 1095.131698 959.996958 1095.131698 C 871.363685 1095.131698 800.002386 1023.770399 800.002386 935.107601 C 800.002386 846.474328 871.363685 775.113029 959.996958 775.113029 Z M 959.996958 775.113029 " transform="matrix(0.132304,0,0,0.132304,0,0)"/>
</g>
</svg>

<svg xmlns="http://www.w3.org/2000/svg" width="256pt" height="256pt" viewBox="0 0 256 256"><defs><radialGradient id="a" gradientUnits="userSpaceOnUse" cx="450.909" cy="189.579" fx="450.909" fy="189.579" r="21.167" gradientTransform="matrix(0 -.62506 -1.1251 0 356.185 508.763)"><stop offset="0" stop-opacity=".314"/><stop offset=".222" stop-opacity=".275"/><stop offset="1" stop-opacity="0"/></radialGradient><radialGradient id="b" gradientUnits="userSpaceOnUse" cx="450.909" cy="189.579" fx="450.909" fy="189.579" r="21.167" gradientTransform="matrix(0 .62506 1.1251 0 -102.16 -60.22)"><stop offset="0" stop-opacity=".314"/><stop offset=".222" stop-opacity=".275"/><stop offset="1" stop-opacity="0"/></radialGradient><radialGradient id="c" gradientUnits="userSpaceOnUse" cx="450.909" cy="189.579" fx="450.909" fy="189.579" r="21.167" gradientTransform="matrix(0 -.62506 1.1251 0 -102.16 508.763)"><stop offset="0" stop-opacity=".314"/><stop offset=".222" stop-opacity=".275"/><stop offset="1" stop-opacity="0"/></radialGradient><radialGradient id="d" gradientUnits="userSpaceOnUse" cx="450.909" cy="189.579" fx="450.909" fy="189.579" r="21.167" gradientTransform="matrix(0 .62506 -1.1251 0 356.185 -60.22)"><stop offset="0" stop-opacity=".314"/><stop offset=".222" stop-opacity=".275"/><stop offset="1" stop-opacity="0"/></radialGradient><linearGradient id="e" gradientUnits="userSpaceOnUse" x1="255.323" y1="233.5" x2="255.323" y2="254.667" gradientTransform="matrix(.10688 0 0 .50005 99.723 107.51)"><stop offset="0" stop-opacity=".275"/><stop offset="1" stop-opacity="0"/></linearGradient><linearGradient id="f" gradientUnits="userSpaceOnUse" x1="254" y1="-168.667" x2="254" y2="233.5" gradientTransform="matrix(3.77953 0 0 3.77953 0 812.598)"><stop offset="0" stop-color="#e0e0e0"/><stop offset="1" stop-color="#bdbdbd"/></linearGradient><linearGradient id="g" gradientUnits="userSpaceOnUse" x1="960" y1="1695.118" x2="960" y2="1315.118"><stop offset="0" stop-color="#f44336"/><stop offset="1" stop-color="#ef5350"/></linearGradient><linearGradient id="h" gradientUnits="userSpaceOnUse" x1="254" y1="117.083" x2="254" y2="-52.25" gradientTransform="matrix(3.77953 0 0 3.77953 0 812.598)"><stop offset="0" stop-color="#f5f5f5"/><stop offset="1" stop-color="#e0e0e0"/></linearGradient></defs><path d="M145.535 224.27h21.168v-10.583h-21.168zm0 0" fill="url(#a)"/><path d="M108.488 224.27H87.32v10.585h21.168zm0 0" fill="url(#b)"/><path d="M108.488 224.27H87.32v-10.583h21.168zm0 0" fill="url(#c)"/><path d="M145.535 224.27h21.168v10.585h-21.168zm0 0" fill="url(#d)"/><path d="M108.488 221.625h37.047v13.23h-37.047zm0 0" fill="url(#e)"/><path d="M959.997 175.111c-421.023 0-759.996 338.974-759.996 759.997 0 421.052 338.973 759.996 759.996 759.996 421.052 0 759.996-338.944 759.996-759.996 0-421.023-338.944-759.997-759.996-759.997zm0 600.002c88.633 0 159.995 71.361 159.995 159.995 0 88.662-71.362 160.024-159.995 160.024-88.633 0-159.995-71.362-159.995-160.024 0-88.634 71.362-159.995 159.995-159.995zm0 0" transform="scale(.1323)" fill="url(#f)" stroke-width="11.339" stroke-linecap="round" stroke="#333"/><path d="M959.997 1305.112c-12.489 0-25.007 10.009-40.006 29.997-49.985 70.003-81.843 110.245-79.983 159.994v160.024c0 22.144 17.833 40.006 40.006 40.006h159.995c22.144 0 39.977-17.862 39.977-40.006v-160.024c0-49.985-29.998-89.991-79.983-159.994-14.999-19.988-27.517-29.997-40.006-29.997zm0 0" transform="scale(.1323)" fill="url(#g)" stroke-width="11.339" stroke-linecap="square" stroke-linejoin="bevel" stroke="#212121"/><path d="M127.012 224.27c-55.703 0-100.551-44.844-100.551-100.551 0-.328.004-.656.008-.985.523 55.25 45.168 99.567 100.543 99.567 55.379 0 100.02-44.317 100.547-99.567 0 .329.004.657.004.985 0 55.707-44.844 100.55-100.551 100.55zm0 0" fill-opacity=".196"/><path d="M127.012 23.168c-55.703 0-100.551 44.848-100.551 100.55 0 .329.004.657.008.985.523-55.246 45.168-99.566 100.543-99.566 55.379 0 100.02 44.32 100.547 99.566 0-.328.004-.656.004-.984 0-55.703-44.844-100.551-100.551-100.551zm0 0" fill="#fff" fill-opacity=".588"/><path d="M127.012 22.418c-56.11 0-101.301 45.195-101.301 101.3 0 56.11 45.191 101.305 101.3 101.305 56.11 0 101.302-45.195 101.302-101.304 0-56.106-45.192-101.301-101.301-101.301zm0 1.5c55.304 0 99.8 44.5 99.8 99.8 0 55.305-44.496 99.802-99.8 99.802-55.301 0-99.801-44.497-99.801-99.801 0-55.301 44.5-99.801 99.8-99.801zm0 0" fill="#212121"/><path d="M959.997 615.118c-177.267 0-319.99 142.723-319.99 319.99 0 177.296 142.723 320.018 319.99 320.018 177.296 0 319.99-142.722 319.99-320.018 0-177.267-142.694-319.99-319.99-319.99zm0 159.995c88.633 0 159.995 71.361 159.995 159.995 0 88.662-71.362 160.024-159.995 160.024-88.633 0-159.995-71.362-159.995-160.024 0-88.634 71.362-159.995 159.995-159.995zm0 0" transform="scale(.1323)" fill="url(#h)" stroke-width="11.339" stroke-linecap="round" stroke="#333"/></svg>
